icons/lines/filter-remove.svg

<svg xmlns="http://www.w3.org/2000/svg" width="24" height="24" viewBox="0 0 24 24" fill="none" stroke="currentColor" stroke-width="2" stroke-linecap="round" stroke-linejoin="round" >
  <path d="M13.4096 20.79L11.9996 21.7C10.6896 22.51 8.86957 21.6 8.86957 19.98V14.63C8.86957 13.92 8.46957 13.01 8.05957 12.51L4.21957 8.46997C3.70957 7.95997 3.30957 7.06001 3.30957 6.45001V4.13C3.30957 2.92 4.21957 2.01001 5.32957 2.01001H18.6696C19.7796 2.01001 20.6896 2.92003 20.6896 4.03003V6.25C20.6896 7.06 20.1796 8.07001 19.6796 8.57001" stroke-miterlimit="10"/>
  <path d="M21.6299 14.75C21.6299 15.64 21.3799 16.48 20.9399 17.2C20.1199 18.58 18.6099 19.5 16.8799 19.5C15.1499 19.5 13.6399 18.57 12.8199 17.2C12.3799 16.49 12.1299 15.64 12.1299 14.75C12.1299 12.13 14.2599 10 16.8799 10C19.4999 10 21.6299 12.13 21.6299 14.75Z" stroke-miterlimit="10"/>
  <path d="M18.1496 15.99L15.6396 13.48" stroke-miterlimit="10"/>
  <path d="M18.1301 13.51L15.6201 16.02" stroke-miterlimit="10"/>
  <path d="M20.6896 4.02002V6.23999C20.6896 7.04999 20.1796 8.06001 19.6796 8.57001L17.9196 10.12C17.5896 10.04 17.2396 10 16.8796 10C14.2596 10 12.1296 12.13 12.1296 14.75C12.1296 15.64 12.3796 16.48 12.8196 17.2C13.1896 17.82 13.6996 18.35 14.3196 18.73V19.07C14.3196 19.68 13.9196 20.49 13.4096 20.79L11.9996 21.7C10.6896 22.51 8.86957 21.6 8.86957 19.98V14.63C8.86957 13.92 8.45957 13.01 8.05957 12.51L4.21957 8.46997C3.71957 7.95997 3.30957 7.05001 3.30957 6.45001V4.12C3.30957 2.91 4.21957 2 5.32957 2H18.6696C19.7796 2 20.6896 2.91002 20.6896 4.02002Z" stroke-miterlimit="10"/>
  </svg>

<svg xmlns="http://www.w3.org/2000/svg" width="24" height="24" viewBox="0 0 24 24" fill="none" stroke="currentColor" stroke-width="2" stroke-linecap="round" stroke-linejoin="round">
  <path d="M12 21.7c-1.31.81-3.13-.1-3.13-1.72v-5.35c0-.71-.4-1.62-.81-2.12" />
  <path d="m18.13 13.51-2.51 2.51" />
  <path d="m18.15 15.99-2.51-2.51" />
  <path d="M20.69 6.25c0 .81-.51 1.82-1.01 2.32" />
  <path d="M4.22 8.47c-.5-.51-.91-1.42-.91-2.02V4.12C3.31 2.91 4.22 2 5.33 2h13.34a2 2 0 0 1 2.02 2.02v2.23c0 .8-.51 1.81-1.01 2.32l-1.76 1.55a4.4 4.4 0 0 0-1.04-.12 4.754 4.754 0 0 0-4.06 7.2 4.5 4.5 0 0 0 1.5 1.53v.34c0 .61-.4 1.42-.91 1.72L12 21.7c-1.31.81-3.13-.1-3.13-1.72v-5.35c0-.71-.41-1.62-.81-2.12zc-.51-.51-.91-1.41-.91-2.02V4.13c0-1.21.91-2.12 2.02-2.12h13.34a2 2 0 0 1 2.02 2.02" />
  <circle cx="16.878" cy="14.764" r="4.716" />
</svg>
